ir/shield-upload.svg

<svg stroke-width="1.5" viewBox="0 0 24 24" fill="none" xmlns="http://www.w3.org/2000/svg" height="1em" width="1em">
  <path d="M12 15V8M12 8L15 11M12 8L9 11" stroke="currentColor" stroke-linecap="round" stroke-linejoin="round"/>
  <path d="M5 18L3.13036 4.91253C3.05646 4.39524 3.39389 3.91247 3.90398 3.79912L11.5661 2.09641C11.8519 2.03291 12.1481 2.03291 12.4339 2.09641L20.096 3.79912C20.6061 3.91247 20.9435 4.39524 20.8696 4.91252L19 18C18.9293 18.495 18.5 21.5 12 21.5C5.5 21.5 5.07071 18.495 5 18Z" stroke="currentColor" stroke-linecap="round" stroke-linejoin="round"/>
</svg>

<svg stroke-width="1.5" viewBox="0 0 24 24" fill="none" xmlns="http://www.w3.org/2000/svg" height="1em" width="1em">
  <path d="M12 15V8m0 0 3 3m-3-3-3 3m-4 7L3.13 4.913a.996.996 0 0 1 .774-1.114l7.662-1.703a2 2 0 0 1 .868 0L20.096 3.8c.51.113.848.596.774 1.114L19 18c-.07.495-.5 3.5-7 3.5S5.07 18.495 5 18Z" stroke="currentColor" stroke-linecap="round" stroke-linejoin="round"/>
</svg>
